X: 30
T: W Tobie ufność swą kładę, Boże niezmierzony,
C: Mikołaj Gomółka
%%abc-version 2.0
%%abcx-abcm2ps-target-version 5.9.1 (29 Sep 2008)
%%abc-creator hum2abc beta
%%abcx-conversion-date 2021/10/04 07:59:09
%%abc-edited-by Marta Lawrence
%%abcx-initial-encoding-date 2020-02-07
%%humdrum-veritas 4123190039
%%humdrum-veritas-data 1863934827
%%linebreak <none>
%%barnumbers 0
L: 1/4
M: C|
N: Derived from pl-wn--sd-xvi-qu-273--031_gomolka-mikolaj--w-tobie-ufnosc-swa-klade-boze-niezmierzony.krn
%%staves [1 2 3 4]
V: 1
V: 2 clef=alto
V: 3 clef=alto
V: 4 clef=bass
K: F
[V:1] F4c2A4 [|] 
[V:2] F4E2F4 [|] 
[V:3] C4C2C4 [|] 
[V:4] F,4C,2F,4 [|] 
[V:1] GFGAB2 [|] 
[V:2] F2C2B,2 [|] 
[V:3] D2E2DE [|] 
[V:4] E,D,C,2G,2 [|] 
[V:1] A2A4G2 [|] 
[V:2] C2>B,2A,B,C2 [|] 
[V:3] F2>E2D2G2 [|] 
[V:4] A,2>G,2F,2E,2 [|] 
[V:1] ABc4B2 [|] 
[V:2] D2G2>F2FE/D/ [|] 
[V:3] F2>E2DCD2 [|] 
[V:4] D,2C,2G,4 [|] 
[V:1] c2c4B2 [|] 
[V:2] E2F4D2 [|] 
[V:3] C2A,4B,2 [|] 
[V:4] C,2F,4G,2 [|] 
[V:1] A4G2G2 [|] 
[V:2] C2FEDCD2 [|] 
[V:3] C2C4B,2 [|] 
[V:4] A,2F,2G,2G,2 [|] 
[V:1] E2>F2G2A2 [|] 
[V:2] G2>F2EDC2 [|] 
[V:3] C4C2A,2 [|] 
[V:4] B,,2>D,2E,2F,2 [|] 
[V:1] GFF4E2 [|] 
[V:2] D2B,2C3B, [|] 
[V:3] B,A,G,F,G,4 [|] 
[V:4] B,,2D,2C,4 [|] 
[V:1] F4z2A4 [|] 
[V:2] A,4z2F4 [|] 
[V:3] F,4z2C4 [|] 
[V:4] F,,4z2F,4 [|] 
[V:1] G2A2B2 [|] 
[V:2] E2F2DE [|] 
[V:3] C2C2B,2 [|] 
[V:4] C,2F,2G,2 [|] 
[V:1] A2c2>B2A2 [|] 
[V:2] F2>E2D2C2 [|] 
[V:3] C2>B,2A,2FE [|] 
[V:4] A,2>G,2F,2F,2 [|] 
[V:1] GFGABAA4 [|] 
[V:2] B,CDEF2F2 [|] 
[V:3] D4D2C2 [|] 
[V:4] G,2>F,2D,E,F,2 [|] 
[V:1] G2A2A4 [|] 
[V:2] D2>E2F2F4 [|] 
[V:3] B,4A,2A,2 [|] 
[V:4] G,4F,2F,4 [|] 
[V:1] G2A2B2 [|] 
[V:2] E2F2DE [|] 
[V:3] C2C4B,2 [|] 
[V:4] C,2F,2G,2 [|] 
[V:1] A2>B2c2A2 [|] 
[V:2] F2F2G2F2 [|] 
[V:3] C2>D2E2D2 [|] 
[V:4] F,2F,2C,2D,2 [|] 
[V:1] B2>A2GFF4 [|] 
[V:2] F2>E2D2C2 [|] 
[V:3] D2>C2B,3A, [|] 
[V:4] B,,4B,,2F,,2 [|] 
[V:1] E2F32 |]  
[V:2] C2>B,2A,32 |]  
[V:3] G,F,G,2F,32 |]  
[V:4] C,4F,,32 |]  


